src/assets/bold/lm-file-text-dashed-bold.svg

<svg width="24" height="24" viewBox="0 0 24 24" fill="none" xmlns="http://www.w3.org/2000/svg" fill="currentColor">
<path d="M4.5 16.5C4.91421 16.5 5.25 16.8358 5.25 17.25V20.25H6.75C7.16421 20.25 7.5 20.5858 7.5 21C7.5 21.4142 7.16421 21.75 6.75 21.75H5.25C4.85218 21.75 4.47076 21.5919 4.18945 21.3105C3.90815 21.0292 3.75 20.6478 3.75 20.25V17.25C3.75 16.8358 4.08579 16.5 4.5 16.5Z" fill="black"/>
<path d="M14.25 20.25C14.6642 20.25 15 20.5858 15 21C15 21.4142 14.6642 21.75 14.25 21.75H10.5C10.0858 21.75 9.75 21.4142 9.75 21C9.75 20.5858 10.0858 20.25 10.5 20.25H14.25Z" fill="black"/>
<path d="M19.5 15.75C19.9142 15.75 20.25 16.0858 20.25 16.5V20.25C20.25 20.6478 20.0919 21.0292 19.8105 21.3105C19.5292 21.5919 19.1478 21.75 18.75 21.75H18C17.5858 21.75 17.25 21.4142 17.25 21C17.25 20.5858 17.5858 20.25 18 20.25H18.75V16.5C18.75 16.0858 19.0858 15.75 19.5 15.75Z" fill="black"/>
<path d="M15 15C15.4142 15 15.75 15.3358 15.75 15.75C15.75 16.1642 15.4142 16.5 15 16.5H9C8.58579 16.5 8.25 16.1642 8.25 15.75C8.25 15.3358 8.58579 15 9 15H15Z" fill="black"/>
<path d="M4.5 9C4.91421 9 5.25 9.33579 5.25 9.75V13.5C5.25 13.9142 4.91421 14.25 4.5 14.25C4.08579 14.25 3.75 13.9142 3.75 13.5V9.75C3.75 9.33579 4.08579 9 4.5 9Z" fill="black"/>
<path d="M15 12C15.4142 12 15.75 12.3358 15.75 12.75C15.75 13.1642 15.4142 13.5 15 13.5H9C8.58579 13.5 8.25 13.1642 8.25 12.75C8.25 12.3358 8.58579 12 9 12H15Z" fill="black"/>
<path fill-rule="evenodd" clip-rule="evenodd" d="M14.25 2.25C14.2981 2.25 14.345 2.25502 14.3906 2.26367C14.3935 2.26422 14.3965 2.26406 14.3994 2.26465C14.4138 2.26756 14.4273 2.27363 14.4414 2.27734C14.4745 2.2861 14.5076 2.29447 14.5391 2.30762C14.5686 2.31994 14.5956 2.3367 14.623 2.35254C14.6376 2.3609 14.653 2.36761 14.667 2.37695C14.7077 2.40425 14.7457 2.43519 14.7803 2.46973L20.0303 7.71973C20.166 7.85545 20.25 8.04289 20.25 8.25V12.75C20.25 13.1642 19.9142 13.5 19.5 13.5C19.0858 13.5 18.75 13.1642 18.75 12.75V9H14.25C13.8358 9 13.5 8.66421 13.5 8.25V3.75H11.25C10.8358 3.75 10.5 3.41421 10.5 3C10.5 2.58579 10.8358 2.25 11.25 2.25H14.25ZM15 7.5H17.6895L15 4.81055V7.5Z" fill="black"/>
<path d="M12 9C12.4142 9 12.75 9.33579 12.75 9.75C12.75 10.1642 12.4142 10.5 12 10.5H9C8.58579 10.5 8.25 10.1642 8.25 9.75C8.25 9.33579 8.58579 9 9 9H12Z" fill="black"/>
<path d="M7.5 2.25C7.91421 2.25 8.25 2.58579 8.25 3C8.25 3.41421 7.91421 3.75 7.5 3.75H5.25V6C5.25 6.41421 4.91421 6.75 4.5 6.75C4.08579 6.75 3.75 6.41421 3.75 6V3.75C3.75 3.35217 3.90815 2.97076 4.18945 2.68945C4.47076 2.40815 4.85217 2.25 5.25 2.25H7.5Z" fill="black"/>
</svg>

<svg xmlns="http://www.w3.org/2000/svg" width="24" height="24" fill="currentColor" viewBox="0 0 24 24">
  <path d="M4.5 16.5a.75.75 0 0 1 .75.75v3h1.5a.75.75 0 0 1 0 1.5h-1.5a1.5 1.5 0 0 1-1.5-1.5v-3a.75.75 0 0 1 .75-.75Zm9.75 3.75a.75.75 0 0 1 0 1.5H10.5a.75.75 0 0 1 0-1.5h3.75Zm5.25-4.5a.75.75 0 0 1 .75.75v3.75a1.5 1.5 0 0 1-1.5 1.5H18a.75.75 0 0 1 0-1.5h.75V16.5a.75.75 0 0 1 .75-.75ZM15 15a.75.75 0 0 1 0 1.5H9A.75.75 0 0 1 9 15h6ZM4.5 9a.75.75 0 0 1 .75.75v3.75a.75.75 0 0 1-1.5 0V9.75A.75.75 0 0 1 4.5 9ZM15 12a.75.75 0 0 1 0 1.5H9A.75.75 0 0 1 9 12h6Z"/>
  <path fill-rule="evenodd" d="M14.25 2.25c.048 0 .095.005.14.014h.01c.014.004.027.01.041.013.034.01.067.017.098.03.03.013.057.03.084.046.015.008.03.015.044.024.04.027.079.058.113.093l5.25 5.25c.136.135.22.323.22.53v4.5a.75.75 0 0 1-1.5 0V9h-4.5a.75.75 0 0 1-.75-.75v-4.5h-2.25a.75.75 0 0 1 0-1.5h3ZM15 7.5h2.69L15 4.81V7.5Z" clip-rule="evenodd"/>
  <path d="M12 9a.75.75 0 0 1 0 1.5H9A.75.75 0 0 1 9 9h3ZM7.5 2.25a.75.75 0 0 1 0 1.5H5.25V6a.75.75 0 0 1-1.5 0V3.75a1.5 1.5 0 0 1 1.5-1.5H7.5Z"/>
</svg>
